images/icons/lateral-menu-button.svg

<svg xmlns="http://www.w3.org/2000/svg" viewBox="0 0 24 24">
    <path fill="white" d="M 3 5 A 1.0001 1.0001 0 1 0 3 7 L 21 7 A 1.0001 1.0001 0 1 0 21 5 L 3 5 z M 3 11 A 1.0001 1.0001 0 1 0 3 13 L 21 13 A 1.0001 1.0001 0 1 0 21 11 L 3 11 z M 3 17 A 1.0001 1.0001 0 1 0 3 19 L 21 19 A 1.0001 1.0001 0 1 0 21 17 L 3 17 z"></path>
</svg>

<svg xmlns="http://www.w3.org/2000/svg" viewBox="0 0 24 24"><path fill="#fff" d="M3 5a1 1 0 1 0 0 2h18a1 1 0 1 0 0-2h-18zm0 6a1 1 0 1 0 0 2h18a1 1 0 1 0 0-2h-18zm0 6a1 1 0 1 0 0 2h18a1 1 0 1 0 0-2h-18z"/></svg>
